X: 91
T:Lady Spellor (Soldier's Life)
M:6/8
L:1/8
Q:120
S:Playford
K:D
d| f>ga f>ed | e2 c A2 d| f>ga f>ed | e3 e2 e| f>ga f>ed |e2 c A>GF| G>A B AB>c d3 d2:|

